dist/svgs/crypto-icons/icons/mint.svg

<?xml version="1.0" encoding="UTF-8" standalone="yes"?>
<svg xmlns="http://www.w3.org/2000/svg" xmlns:xlink="http://www.w3.org/1999/xlink" width="512px" height="512px" viewBox="0 0 384 384" version="1.1">
  <g id="surface1">
    <path style=" stroke:none;fill-rule:nonzero;fill:rgb(0%,0%,0%);fill-opacity:1;" d="M 382.246094 239.257812 C 380.539062 205.128906 368.59375 164.601562 358.78125 141.5625 C 348.964844 118.523438 322.746094 82.304688 309.289062 80.128906 C 299.621094 78.566406 291.375 79.132812 264.636719 80.128906 C 237.898438 81.125 235.914062 87.953125 235.628906 91.367188 C 235.339844 94.78125 244.730469 100.183594 252.40625 108.710938 C 260.089844 117.242188 281.699219 155.921875 287.394531 175.832031 C 293.085938 195.746094 298.203125 213.378906 299.910156 245.226562 C 301.617188 277.082031 299.054688 295 304.171875 300.972656 C 309.289062 306.945312 374.710938 304.101562 379.828125 300.972656 C 384.945312 297.847656 383.949219 273.386719 382.246094 239.257812 Z M 382.246094 239.257812 "/>
    <path style=" stroke:none;fill-rule:nonzero;fill:rgb(0%,0%,0%);fill-opacity:1;" d="M 254.023438 141.5625 C 244.207031 118.523438 217.988281 82.304688 204.535156 80.128906 C 194.863281 78.566406 186.613281 79.132812 159.878906 80.128906 C 133.136719 81.125 131.15625 87.953125 130.871094 91.367188 C 130.582031 94.78125 139.96875 100.183594 147.648438 108.710938 C 155.328125 117.242188 176.941406 155.921875 182.632812 175.832031 C 188.324219 195.746094 193.441406 213.378906 195.148438 245.226562 C 196.855469 277.082031 194.296875 295 199.414062 300.972656 C 204.535156 306.945312 269.949219 304.101562 275.070312 300.972656 C 280.1875 297.84375 279.195312 273.382812 277.488281 239.257812 C 275.78125 205.128906 263.832031 164.601562 254.023438 141.5625 Z M 254.023438 141.5625 "/>
    <path style=" stroke:none;fill-rule:nonzero;fill:rgb(0%,0%,0%);fill-opacity:1;" d="M 151.6875 141.5625 C 141.878906 118.523438 115.660156 82.304688 102.203125 80.128906 C 92.535156 78.566406 84.285156 79.132812 57.546875 80.128906 C 30.8125 81.125 28.828125 87.953125 28.535156 91.367188 C 28.25 94.78125 37.640625 100.183594 45.316406 108.710938 C 51.546875 115.632812 66.953125 142.40625 75.582031 162.894531 L -0.433594 162.894531 L 28.53125 191.8125 L 84.730469 191.8125 C 87.226562 201.410156 89.417969 211.515625 90.96875 223.988281 L 11.941406 223.988281 L 40.902344 252.910156 L 93.152344 252.910156 C 94.140625 279.964844 92.394531 295.503906 97.085938 300.972656 C 102.203125 306.945312 167.613281 304.105469 172.734375 300.972656 C 177.855469 297.847656 176.859375 273.386719 175.152344 239.257812 C 173.445312 205.128906 161.5 164.601562 151.6875 141.5625 Z M 151.6875 141.5625 "/>
  </g>
</svg>

<svg xmlns="http://www.w3.org/2000/svg" viewBox="0 0 384 384"><path d="M382.246 239.258c-1.707-34.13-13.652-74.656-23.465-97.696-9.816-23.039-36.035-59.257-49.492-61.433-9.668-1.563-17.914-.996-44.652 0-26.739.996-28.723 7.824-29.008 11.238-.29 3.414 9.101 8.817 16.777 17.344 7.684 8.531 29.293 47.21 34.989 67.121 5.69 19.914 10.808 37.547 12.515 69.395 1.707 31.855-.855 49.773 4.262 55.746 5.117 5.972 70.539 3.129 75.656 0 5.117-3.125 4.121-27.586 2.418-61.715zm0 0"/><path d="M254.023 141.563c-9.816-23.04-36.035-59.258-49.488-61.434-9.672-1.563-17.922-.996-44.656 0-26.742.996-28.723 7.824-29.008 11.238-.289 3.414 9.098 8.817 16.777 17.344 7.68 8.531 29.293 47.21 34.985 67.121 5.691 19.914 10.808 37.547 12.515 69.395 1.707 31.855-.851 49.773 4.266 55.746 5.121 5.972 70.535 3.129 75.656 0 5.118-3.13 4.125-27.59 2.418-61.715-1.707-34.13-13.656-74.656-23.465-97.696zm0 0"/><path d="M151.688 141.563c-9.81-23.04-36.028-59.258-49.485-61.434-9.668-1.563-17.918-.996-44.656 0-26.734.996-28.719 7.824-29.012 11.238-.285 3.414 9.106 8.817 16.781 17.344 6.23 6.922 21.637 33.695 30.266 54.184H-.434l28.965 28.917h56.2c2.496 9.598 4.687 19.704 6.238 32.176H11.94l28.961 28.922h52.25c.989 27.055-.757 42.594 3.934 48.063 5.117 5.972 70.527 3.132 75.648 0 5.121-3.125 4.125-27.586 2.418-61.715-1.707-34.13-13.652-74.656-23.464-97.696zm0 0"/></svg>
